logo.svg

<svg xmlns="http://www.w3.org/2000/svg" viewBox="0 0 112 24" height="24" class="text-text-000 h-[4.5rem] min-[1000px]:h-[5.25rem] w-[7.5rem]" fill="currentColor"><path d="M11.376 24L10.776 23.544L10.44 22.8L10.776 21.312L11.16 19.392L11.472 17.856L11.76 15.96L11.928 15.336L11.904 15.288L11.784 15.312L10.344 17.28L8.16 20.232L6.432 22.056L6.024 22.224L5.304 21.864L5.376 21.192L5.784 20.616L8.16 17.568L9.6 15.672L10.536 14.592L10.512 14.448H10.464L4.128 18.576L3 18.72L2.496 18.264L2.568 17.52L2.808 17.28L4.704 15.96L9.432 13.32L9.504 13.08L9.432 12.96H9.192L8.4 12.912L5.712 12.84L3.384 12.744L1.104 12.624L0.528 12.504L0 11.784L0.048 11.424L0.528 11.112L1.224 11.16L2.736 11.28L5.016 11.424L6.672 11.52L9.12 11.784H9.504L9.552 11.616L9.432 11.52L9.336 11.424L6.96 9.84L4.416 8.16L3.072 7.176L2.352 6.672L1.992 6.216L1.848 5.208L2.496 4.488L3.384 4.56L3.6 4.608L4.488 5.304L6.384 6.768L8.88 8.616L9.24 8.904L9.408 8.808V8.736L9.24 8.472L7.896 6.024L6.456 3.528L5.808 2.496L5.64 1.872C5.576 1.656 5.544 1.416 5.544 1.152L6.288 0.144001L6.696 0L7.704 0.144001L8.112 0.504001L8.736 1.92L9.72 4.152L11.28 7.176L11.736 8.088L11.976 8.904L12.072 9.168H12.24V9.024L12.36 7.296L12.6 5.208L12.84 2.52L12.912 1.752L13.296 0.840001L14.04 0.360001L14.616 0.624001L15.096 1.32L15.024 1.752L14.76 3.6L14.184 6.504L13.824 8.472H14.04L14.28 8.208L15.264 6.912L16.92 4.848L17.64 4.032L18.504 3.12L19.056 2.688H20.088L20.832 3.816L20.496 4.992L19.44 6.336L18.552 7.464L17.28 9.168L16.512 10.536L16.584 10.632H16.752L19.608 10.008L21.168 9.744L22.992 9.432L23.832 9.816L23.928 10.2L23.592 11.016L21.624 11.496L19.32 11.952L15.888 12.768L15.84 12.792L15.888 12.864L17.424 13.008L18.096 13.056H19.728L22.752 13.272L23.544 13.8L24 14.424L23.928 14.928L22.704 15.528L21.072 15.144L17.232 14.232L15.936 13.92H15.744V14.016L16.848 15.096L18.84 16.896L21.36 19.224L21.48 19.8L21.168 20.28L20.832 20.232L18.624 18.552L17.76 17.808L15.84 16.2H15.72V16.368L16.152 17.016L18.504 20.544L18.624 21.624L18.456 21.96L17.832 22.176L17.184 22.056L15.792 20.136L14.376 17.952L13.224 16.008L13.104 16.104L12.408 23.352L12.096 23.712L11.376 24Z" shape-rendering="optimizeQuality" fill="#D97757"></path><path shape-rendering="optimizeQuality" d="M39.504 21.2643C37.688 21.2643 36.06 20.9003 34.62 20.1723C33.18 19.4443 32.048 18.4163 31.224 17.0883C30.408 15.7603 30 14.2243 30 12.4803C30 10.6563 30.412 9.03233 31.236 7.60833C32.06 6.17633 33.196 5.06833 34.644 4.28433C36.1 3.49233 37.74 3.09633 39.564 3.09633C40.692 3.09633 41.82 3.22033 42.948 3.46833C44.084 3.71633 45.072 4.09633 45.912 4.60833V8.56833H44.832C44.536 7.16833 43.96 6.12433 43.104 5.43633C42.256 4.74833 41.076 4.40433 39.564 4.40433C38.164 4.40433 36.996 4.73233 36.06 5.38833C35.132 6.03633 34.444 6.93633 33.996 8.08833C33.548 9.24033 33.324 10.5643 33.324 12.0603C33.324 13.5483 33.576 14.8883 34.08 16.0803C34.584 17.2723 35.328 18.2163 36.312 18.9123C37.296 19.6003 38.476 19.9443 39.852 19.9443C40.796 19.9443 41.608 19.7483 42.288 19.3563C42.968 18.9643 43.54 18.4363 44.004 17.7723C44.468 17.1003 44.908 16.2803 45.324 15.3123H46.464L45.684 19.6803C44.892 20.2003 43.936 20.5963 42.816 20.8683C41.704 21.1323 40.6 21.2643 39.504 21.2643ZM47.964 21.0003V19.9563C48.356 19.9003 48.668 19.8403 48.9 19.7763C49.14 19.7043 49.332 19.5883 49.476 19.4283C49.628 19.2683 49.704 19.0443 49.704 18.7563V5.83233L47.964 5.08833V4.28433L51.612 2.73633H52.56V18.7563C52.56 19.0523 52.632 19.2803 52.776 19.4403C52.928 19.6003 53.12 19.7123 53.352 19.7763C53.592 19.8403 53.912 19.9003 54.312 19.9563V21.0003H47.964ZM59.028 21.2643C58.38 21.2643 57.792 21.1363 57.264 20.8803C56.736 20.6243 56.32 20.2563 56.016 19.7763C55.712 19.2963 55.56 18.7363 55.56 18.0963C55.56 17.1203 55.86 16.3443 56.46 15.7683C57.068 15.1843 57.916 14.7403 59.004 14.4363L63.24 13.2363V11.7123C63.24 10.8883 63.048 10.2523 62.664 9.80433C62.288 9.34833 61.708 9.12033 60.924 9.12033C60.228 9.12033 59.704 9.33233 59.352 9.75633C59.008 10.1723 58.836 10.7483 58.836 11.4843V12.6123H56.988C56.764 12.4683 56.588 12.2763 56.46 12.0363C56.34 11.7883 56.28 11.5163 56.28 11.2203C56.28 10.5563 56.516 9.98833 56.988 9.51633C57.46 9.03633 58.06 8.67633 58.788 8.43633C59.516 8.19633 60.256 8.07633 61.008 8.07633C62.592 8.07633 63.836 8.44033 64.74 9.16833C65.644 9.89633 66.096 11.0003 66.096 12.4803V18.5403C66.096 18.8603 66.168 19.1043 66.312 19.2723C66.456 19.4403 66.644 19.5603 66.876 19.6323C67.116 19.6963 67.44 19.7563 67.848 19.8123V20.8563C67.536 20.9683 67.208 21.0563 66.864 21.1203C66.528 21.1843 66.204 21.2163 65.892 21.2163C65.148 21.2163 64.548 21.0483 64.092 20.7123C63.644 20.3683 63.372 19.8643 63.276 19.2003C62.716 19.8643 62.08 20.3763 61.368 20.7363C60.664 21.0883 59.884 21.2643 59.028 21.2643ZM60.444 19.3443C60.948 19.3443 61.44 19.2283 61.92 18.9963C62.408 18.7563 62.848 18.4403 63.24 18.0483V14.3403L60.168 15.2523C59.592 15.4283 59.152 15.7003 58.848 16.0683C58.544 16.4363 58.392 16.9003 58.392 17.4603C58.392 17.8203 58.48 18.1443 58.656 18.4323C58.832 18.7203 59.076 18.9443 59.388 19.1043C59.7 19.2643 60.052 19.3443 60.444 19.3443ZM73.608 21.2643C72.32 21.2643 71.356 20.9283 70.716 20.2563C70.084 19.5843 69.768 18.6363 69.768 17.4123V10.9083L68.016 10.2603L68.112 9.45633L71.664 8.07633H72.624V16.9323C72.624 17.6923 72.812 18.2563 73.188 18.6243C73.564 18.9923 74.14 19.1763 74.916 19.1763C75.428 19.1763 75.964 19.0603 76.524 18.8283C77.084 18.5883 77.6 18.2803 78.072 17.9043V10.9083L76.32 10.2603V9.45633L79.98 8.07633H80.928V17.8323C80.928 18.1523 81 18.4003 81.144 18.5763C81.288 18.7443 81.476 18.8643 81.708 18.9363C81.948 19.0083 82.272 19.0723 82.68 19.1283V20.1603L79.02 21.1803H78.072V19.0803C77.44 19.7363 76.728 20.2643 75.936 20.6643C75.144 21.0643 74.368 21.2643 73.608 21.2643ZM89.328 21.2643C88.264 21.2643 87.312 21.0083 86.472 20.4963C85.632 19.9763 84.976 19.2683 84.504 18.3723C84.032 17.4763 83.796 16.4843 83.796 15.3963C83.796 13.9643 84.08 12.6963 84.648 11.5923C85.224 10.4883 86.032 9.62833 87.072 9.01233C88.112 8.38833 89.32 8.07633 90.696 8.07633C91.12 8.07633 91.556 8.12433 92.004 8.22033C92.46 8.30833 92.896 8.43633 93.312 8.60433V5.82033L91.56 5.08833V4.28433L95.22 2.73633H96.168V17.8323C96.168 18.1523 96.24 18.4003 96.384 18.5763C96.536 18.7443 96.728 18.8643 96.96 18.9363C97.2 19.0083 97.52 19.0723 97.92 19.1283V20.1603L94.26 21.1803H93.312V19.5843C92.752 20.1123 92.132 20.5243 91.452 20.8203C90.78 21.1163 90.072 21.2643 89.328 21.2643ZM90.504 19.3323C90.976 19.3323 91.456 19.2363 91.944 19.0443C92.432 18.8523 92.888 18.5883 93.312 18.2523V10.3563C92.584 9.76433 91.776 9.46833 90.888 9.46833C89.992 9.46833 89.236 9.69633 88.62 10.1523C88.004 10.6083 87.54 11.2283 87.228 12.0123C86.924 12.7883 86.772 13.6563 86.772 14.6163C86.772 15.5283 86.908 16.3403 87.18 17.0523C87.452 17.7563 87.868 18.3123 88.428 18.7203C88.988 19.1283 89.68 19.3323 90.504 19.3323ZM105.252 21.2643C104.068 21.2643 103.004 20.9883 102.06 20.4363C101.116 19.8843 100.376 19.1163 99.84 18.1323C99.304 17.1483 99.036 16.0443 99.036 14.8203C99.036 13.5563 99.308 12.4123 99.852 11.3883C100.404 10.3563 101.156 9.54833 102.108 8.96433C103.068 8.37233 104.136 8.07633 105.312 8.07633C106.216 8.07633 107.048 8.26433 107.808 8.64033C108.568 9.01633 109.2 9.54433 109.704 10.2243C110.216 10.9043 110.552 11.6883 110.712 12.5763L101.928 15.2883C102.168 16.4003 102.644 17.2763 103.356 17.9163C104.076 18.5563 104.968 18.8763 106.032 18.8763C106.92 18.8763 107.716 18.6523 108.42 18.2043C109.124 17.7483 109.748 17.0603 110.292 16.1403L111.228 16.4403C111.012 17.4003 110.62 18.2443 110.052 18.9723C109.484 19.7003 108.784 20.2643 107.952 20.6643C107.128 21.0643 106.228 21.2643 105.252 21.2643ZM107.628 12.2043C107.516 11.6523 107.324 11.1683 107.052 10.7523C106.788 10.3283 106.46 10.0003 106.068 9.76833C105.676 9.53633 105.244 9.42033 104.772 9.42033C104.18 9.42033 103.656 9.60033 103.2 9.96033C102.752 10.3123 102.4 10.8163 102.144 11.4723C101.896 12.1203 101.772 12.8723 101.772 13.7283C101.772 13.8803 101.776 13.9963 101.784 14.0763L107.628 12.2043Z"></path></svg>

<svg height="1em" style="flex:none;line-height:1" viewBox="0 0 24 24" width="1em" xmlns="http://www.w3.org/2000/svg"><title>Claude</title><path d="M4.709 15.955l4.72-2.647.08-.23-.08-.128H9.2l-.79-.048-2.698-.073-2.339-.097-2.266-.122-.571-.121L0 11.784l.055-.352.48-.321.686.06 1.52.103 2.278.158 1.652.097 2.449.255h.389l.055-.157-.134-.098-.103-.097-2.358-1.596-2.552-1.688-1.336-.972-.724-.491-.364-.462-.158-1.008.656-.722.881.06.225.061.893.686 1.908 1.476 2.491 1.833.365.304.145-.103.019-.073-.164-.274-1.355-2.446-1.446-2.49-.644-1.032-.17-.619a2.97 2.97 0 01-.104-.729L6.283.134 6.696 0l.996.134.42.364.62 1.414 1.002 2.229 1.555 3.03.456.898.243.832.091.255h.158V9.01l.128-1.706.237-2.095.23-2.695.08-.76.376-.91.747-.492.584.28.48.685-.067.444-.286 1.851-.559 2.903-.364 1.942h.212l.243-.242.985-1.306 1.652-2.064.73-.82.85-.904.547-.431h1.033l.76 1.129-.34 1.166-1.064 1.347-.881 1.142-1.264 1.7-.79 1.36.073.11.188-.02 2.856-.606 1.543-.28 1.841-.315.833.388.091.395-.328.807-1.969.486-2.309.462-3.439.813-.042.03.049.061 1.549.146.662.036h1.622l3.02.225.79.522.474.638-.079.485-1.215.62-1.64-.389-3.829-.91-1.312-.329h-.182v.11l1.093 1.068 2.006 1.81 2.509 2.33.127.578-.322.455-.34-.049-2.205-1.657-.851-.747-1.926-1.62h-.128v.17l.444.649 2.345 3.521.122 1.08-.17.353-.608.213-.668-.122-1.374-1.925-1.415-2.167-1.143-1.943-.14.08-.674 7.254-.316.37-.729.28-.607-.461-.322-.747.322-1.476.389-1.924.315-1.53.286-1.9.17-.632-.012-.042-.14.018-1.434 1.967-2.18 2.945-1.726 1.845-.414.164-.717-.37.067-.662.401-.589 2.388-3.036 1.44-1.882.93-1.086-.006-.158h-.055L4.132 18.56l-1.13.146-.487-.456.061-.746.231-.243 1.908-1.312-.006.006z" fill="#D97757" fill-rule="nonzero"/></svg>
